!!!COM: Bohuslav (Jan) Martinů
!!!OTL: [T499_Mau-55/16/3-1[13]1-5]
**kern	**dynam	**kern	**dynam	**kern	**dynam	**kern	**dynam
*grp:A	*grp:A	*grp:A	*grp:A	*grp:B	*grp:B	*grp:B	*grp:B
*part4	*part4	*part3	*part3	*part2	*part2	*part1	*part1
*staff4	*staff4	*staff3	*staff3	*staff2	*staff2	*staff1	*staff1
*I"Violoncello	*I"Violoncello	*I"Viola	*I"Viola	*I"Violin II	*I"Violin II	*I"Violin I	*I"Violin I
*I'Vc.	*	*I'Vla.	*	*I'Vln. II	*	*I'Vln. I	*
*clefF4	*	*clefG2	*	*clefG2	*	*clefG2	*
*k[]	*	*k[]	*	*k[]	*	*k[]	*
*C:	*	*C:	*	*C:	*	*C:	*
*M4/4	*	*M4/4	*	*M4/4	*	*M4/4	*
=1	=1	=1	=1	=1	=1	=1	=1
!	!LO:DY:ed=brack	!	!LO:DY:ed=brack	!	!	!	!LO:DY:t=[ %s cresc. ]
!	!	!	!	!	!	!	!LO:HP:t= 
16BB'LL 16Fn	mf	([4ee	f	8r	.	(4ggn	f <
16BB' 16F	.	.	.	.	.	.	.
!	!	!	!	!	!LO:DY:ed=brack	!	!
16BB' 16F	.	.	.	16cn'LL 16a	mf	.	.
16BB'JJ 16F	.	.	.	16c'JJ 16a	.	.	.
4r	.	8eeL])	.	16c'LL 16a	.	4.ffn)	.
.	.	.	.	16c'JJ 16a	.	.	.
.	.	(8gg-XJ	.	8r	.	.	.
16BB'LL 16F	.	8ee-XL	.	8r	.	.	.
16BB' 16F	.	.	.	.	.	.	.
16BB' 16F	.	8anJ)	.	16c'LL 16a	.	(8aa-X	.
16BB'JJ 16F	.	.	.	16c'JJ 16a	.	.	.
4r	.	(8ffL	.	16c'LL 16a	.	4gg-X	.
.	.	.	.	16c'JJ 16a	.	.	.
.	.	8dd-XJ	.	8r	.	.	.
=2	=2	=2	=2	=2	=2	=2	=2
16BB'LL 16F	.	8cc-XL)	.	8r	.	4.ff)	.
16BB' 16F	.	.	.	.	.	.	.
16BB' 16F	.	(8gg-XJ	.	16c'LL 16a	.	.	.
16BB'JJ 16F	.	.	.	16c'JJ 16a	.	.	.
4r	<	8ee-XL	<	16c'LL 16a	.	.	.
.	.	.	.	16c'JJ 16a	.	.	.
.	.	8anJ	.	8r	.	(8aa-X	<
16BB'LL 16F	.	4ff)	.	8r	.	4gg-X	.
16BB' 16F	.	.	.	.	.	.	.
16BB' 16F	.	.	.	16c'LL 16a	<	.	.
16BB'JJ 16F	.	.	.	16c'JJ 16a	.	.	.
4r	[	(8dd-XL	[	16c'LL 16a	.	8ee-XL)	.
.	.	.	.	16c'JJ 16a	.	.	.
.	.	[8b-XJ	.	8r	[	(8bb-XJ	[
=3	=3	=3	=3	=3	=3	=3	=3
16AA#X'LL 16F#X	.	8b-L])	.	8r	.	4.ff#X)	.
16AA#' 16F#	.	.	.	.	.	.	.
16AA#' 16F#	.	(8ggnJ	.	16c#X'LL 16an	.	.	.
16AA#'JJ 16F#	.	.	.	16c#'JJ 16a	.	.	.
4r	.	8eenL	.	16c#'LL 16a	.	.	.
.	.	.	.	16c#'JJ 16a	.	.	.
.	.	8b-XJ)	.	8r	.	(8aan	.
16AA#'LL 16F#	<	(8ff#XL	.	8r	.	4ggn)	<
16AA#' 16F#	.	.	.	.	.	.	.
16AA#' 16F#	.	8dd#XJ)	<	16c#'LL 16a	<	.	.
16AA#'JJ 16F#	.	.	.	16c#'JJ 16a	.	.	.
4r	[	(8ggL	.	16c#'LL 16a	.	(8aaL	.
.	.	.	.	16c#'JJ 16a	.	.	.
.	.	8eeJ	[[	8r	[	[8ff#XJ	[
!!LO:REH:t=13
=4	=4	=4	=4	=4	=4	=4	=4
!	!LO:DY:rj:t=poco %s	!	!	!	!	!	!
16GG'LL 16G	f	8b-XL)	.	8r	.	8ff#L])	f
16GG' 16G	.	.	.	.	.	.	.
!	!	!	!	!	!LO:DY:rj:t=poco %s	!	!
16GG' 16G	.	(8cc#XJ	f	16c#X'LL 16a#X	f	(8bb-XJ	.
16GG'JJ 16G	.	.	.	16c#'JJ 16a#	.	.	.
8r	.	8aL	.	16c#'LL 16a#	.	[4gg)	.
.	.	.	.	16c#' 16a#	.	.	.
!	!LO:DY:t=%s espress.	!	!	!	!	!	!
(8GG	f	8gJ)	.	16c#' 16a#	.	.	.
.	.	.	.	16c#'JJ 16a#	.	.	.
8E-XL	.	[2b-	.	8r	.	8ggL]	.
8B-XJ	.	.	.	16c#'LL 16a#	.	(8ggJ	.
.	.	.	.	16c#'JJ 16a#	.	.	.
8AnL)	<	.	.	16c#'LL 16a#	.	8ff#XL	.
.	.	.	.	16c#' 16a#	.	.	.
(8GJ	.	.	.	16c#' 16a#	.	8dJ)	.
.	.	.	.	16c#'JJ 16a#	.	.	.
*clefG2	*	*	*	*	*	*	*
=5	=5	=5	=5	=5	=5	=5	=5
8gL	.	8b-L]	.	8r	.	(8gL	.
8aJ	.	(8ee-XJ	<	16c#X'LL 16a#X	.	8f#XJ	.
.	.	.	.	16c#'JJ 16a#	.	.	.
4b-X)	[	8ddL	.	16c#'LL 16a#	.	8GL)	.
.	.	.	.	16c#' 16a#	.	.	.
.	.	8gJ)	[[	16c#' 16a#	.	(8b-XJ	.
.	.	.	.	16c#'JJ 16a#	.	.	.
*clefF4	*	*	*	*	*	*	*
(8GL	.	(8ccnL	.	8r	.	8f#L	.
8AJ	.	[8b-XJ	.	16c#'LL 16a#	.	8eJ)	.
.	.	.	.	16c#'JJ 16a#	.	.	.
4B-X)	.	8b-L])	.	16c#'LL 16a#	.	(8gL	.
.	.	.	.	16c#' 16a#	.	.	.
.	.	(8ee-J	.	16c#' 16a#	.	8f#J	.
.	.	.	.	16c#'JJ 16a#	.	.	.
!!linebreak:original
=6	=6	=6	=6	=6	=6	=6	=6
(8e-XL	<	8ddL)	.	8r	.	8GL)	.
8fJ	.	(8gJ	.	16c#X'LL 16a#X	.	(8ccJ	.
.	.	.	.	16c#'JJ 16a#	.	.	.
4f#X	.	8ccL	.	16c#'LL 16a#	.	8b-XL	.
.	.	.	.	16c#' 16a#	.	.	.
.	.	8b-XJ)	.	16c#' 16a#	.	8gJ	.
.	.	.	.	16c#'JJ 16a#	.	.	.
4g)	[	(4ee-X	<	8r	.	8c#XL)	.
.	.	.	.	16c#'LL 16a#	<	(8eenJ	<
.	.	.	.	16c#'JJ 16a#	.	.	.
(8B-XL	.	8dd-XL)	.	16c#'LL 16a#	.	8ccL	.
.	.	.	.	16c#' 16a#	.	.	.
8cJ	.	[8gg-XJ	[	16c#' 16a#	.	8b-XJ)	[
.	.	.	.	16c#'JJ 16a#	[	.	.
=7	=7	=7	=7	=7	=7	=7	=7
4d-X	<	8ff#XL]	.	8r	.	(8cc#XL	.
.	.	8eenJ	.	16c#X'LL 16a#X	.	8aJ	.
.	.	.	.	16c#'JJ 16a#	.	.	.
4e-X	.	[4gg^	.	16c#'LL 16a#	.	8e-XL)	.
.	.	.	.	16c#' 16a#	.	.	.
.	.	.	.	16c#' 16a#	.	[8een'^J	f
.	.	.	.	16c#'JJ 16a#	.	.	.
*clefG2	*	*	*	*	*	*	*
!	!	!	!LO:DY:rj:t=molto %s	!	!	!	!
8fnL)	f [	8ggL]	f	8r	.	12eeL]	.
.	.	.	.	.	.	(12dd#X	.
(8e-XJ	.	(8ff#XJ	.	16B-X'LL 16gn	f	.	.
.	.	.	.	.	.	12cc#XJ	.
.	.	.	.	16B-'JJ 16g	.	.	.
8g-XL	.	8ggL	.	16B-'LL 16g	.	12ddnL	.
.	.	.	.	16B-' 16g	.	.	.
.	.	.	.	.	.	12ee	.
8d-XJ)	.	8eeJ)	.	16B-' 16g	.	.	.
.	.	.	.	.	.	12cc#J)	.
.	.	.	.	16B-'JJ 16g	.	.	.
=8	=8	=8	=8	=8	=8	=8	=8
(8f-XL	.	(8ggL	.	8r	.	(16dd#XLL	.
.	.	.	.	.	.	16ee	.
8e-XJ	.	8ff#XJ)	.	16B-X'LL 16an	.	16cc#X	.
.	.	.	.	16B-'JJ 16a	.	16dd#JJ)	.
8g-XL	.	(8ff#L	.	16B-'LL 16a	.	(12eeL	.
.	.	.	.	16B-' 16a	.	.	.
.	.	.	.	.	.	12dd#	.
8d-XJ)	.	8eeJ)	.	16B-' 16a	.	.	.
.	.	.	.	.	.	12cc#J)	.
.	.	.	.	16B-'JJ 16a	.	.	.
(8f-L	.	[4gg^	.	8r	.	(12dd#L	.
.	.	.	.	.	.	12ee	.
8e-J	.	.	.	16B-'LL 16a	.	.	.
.	.	.	.	.	.	12cc#J)	.
.	.	.	.	16B-'JJ 16a	.	.	.
[4gn)	.	8ggL]	.	16B-'LL 16a	.	(16dd#LL	.
.	.	.	.	16B-' 16a	.	16ee	.
.	.	[8ff#XJ	.	16B-' 16a	.	16cc#	.
.	.	.	.	16B-'JJ 16a	.	16dd#JJ)	.
=||	=||	=||	=||	=||	=||	=||	=||
*-	*-	*-	*-	*-	*-	*-	*-
!!!system-decoration: [(s1,s2,s3,s4)]
